X:1
T:Lean Baby
T:Lean Baby
C:Billy May
Z:All Rights Reserved
L:1/8
M:2/2
K:F
V:1 treble nm="Voice"
%%MIDI program 52
V:1
"F" B2 A2 F C2 _c- |"Bb" _c2 B_A- _A4 |"F" B2 A2"Dm7" F C2 F |"G7#5b9" _A2 F"C9"G- G>A=A>c | %4
w: My lean bab- y, tall|* and thin, *|Five feet sev- em of|bones and skin * But when she|
"F" B2 A2 F C2 _c- |"Bb" _c2 B_A-"Bdim" A>FF>F |"F" F>F"Dm7"F>F"Gm7" F>C"C7"E"F"F- | F6 z2 | %8
w: tells me may- be she|* loves me, * I feel as|mel- low as a fel- low can be.||
"F" B2 A2 F C2 _c- |"Bb" _c2 B_A- _A3 F |"F" B2 A2"Dm7" F C2 F |"G7#5b9" _A2 F"C9"G- G>A=A>c | %12
w: She's so skin- ny, she's|* so drawn * When|she stands side- ways you|think she's gone, * But when she|
"F" B2 A2 F C2 _c- |"Bb" _c2 B_A- A>AF>F |"F" F>F"Dm7"F>F"Gm7" F>C"C7"E"F"F- | F4 z2 F2 | %16
w: calls me bab- y, I|* feel fine * to think she's|fran- tic- 'lly ro- man- tic- 'lly mine.|* She's|
"Cm7" G G3-"F9" G2 F>D |"Bb" C D3- D2"Bdim" (FF) |"Cm7" G2 G2"F7" F3 D |"Bb" C D3- D2"C#dim" G2 | %20
w: slen- der, * but she's|ten- der * She *|makes my heart sur-|ren- der, * And|
"Dm7" A A2"G7" G- G3 E |"C" D>EDE- E3 G | c>ccc- c>GA>G |"Gm7" (3BcB- B2"C7" G4 | %24
w: ev- 'ry night * When|I hold her tight, * The|feel- ing is nice, * my arms can|go a- round * twice!|
"F" B2 A2 F C2 _c- |"Bb" _c2 B_A-"Bdim" _A3 F |"F" B2 A2"Dm7" F C2 F | %27
w: My lean bab- y She's|* so slim, * A|broom- stick's wid er but|
"G7#5b9" _A2 F"C9"G- G>A=A>c |"F" B2 A2 F C2 _c- |"Bb" _c2 B_A-"Bdim" A>FF>F | %30
w: not as trim, * And when she|starts to kiss me. Then|* I know * I love her|
"F" F>F"Dm7"F>F"Gm7" F>C"C"E>G |"F" F8 |] %32
w: so, I'll nev- er ev- er let her|go.|

